-----BEGIN AGE ENCRYPTED FILE-----
YWdlLWVuY3J5cHRpb24ub3JnL3YxCi0+IG1sa2VtNzY4eDI1NTE5IGFaNnI1UVE4
MXZ6YnU5S2FLeTJSR0h3QkxabzVSejl6TTRWTTA2dnNhSnlqRE5Pc1RtL1J6R3Nq
YXI0M3hFdHMrT0Fta1I1UmttQW8wTTBaRE9KL2pDajVEYkliK0RMUEI0RjJCdDBF
U1JsY2dFdTV5RURLbnNlWmE0WGVDdEdGSTdQczIrZjFSSUwvKyt2NzVpMGs1WVZh
YlBxZFF6OUJZU2ljVDNMbFNYbUZzSHB5aWFFbk9oejhxc0ZJczRmOG15MTlLM0pZ
MmJqYVhGSm9RWHgyL1Y4ZmxUTVdFNnF1UzhvcnRmWmZOUUxFS2FSL20wSmFlZk53
R25NQ1NqSitZOWN1dGFBMmhiSDJNSVFsUmxJUnUxMmo3YTdQWU5oUHRIc1RPN3dZ
ZlVTYTRZaXArTmNJR1oyRm80VnVjRmo0SkZaa1BMbFlwUEpEWGxQdmxHZ3p0Ri9l
eERjSDJ0NnNibG1UUS9QWXBYd0RkUEcvdlZwUUJMdmZLaGNaTUE3MDFxc2V3azNp
QlVkWnNoQ09vd3FoSFpFeUdmYnFuWVBnWE1OU0ZTb0tJYklzb1FwYW1DTjBuMUo0
SVpkTFlsSmZiODNHbmhlc1BYMmdib29XRlpSTDAwMnQ0MjlwMTJJK3QwdnB2RkJh
MExRK0FybDk1S3RpSWVsVGRqdXp3c1RVYlVjSW9LWWdkajBkRVdPc1dsekdjL1hP
NzFLcEVZMms2K2s3UkNtZE9qTHd3OWJPTkF4U2RrQ21MOWNualkwUXdZUjNlQzQy
YnFFMCtuTDM1ZXA4b1V1dVlmWUdzb3l6d29pcC85eTdudGFsdTJibTN2RWtOOFdM
dnYybGpDYWNIck9nSjdkMURMbmMyUzNXNzNHOUtpMzlnM3RwNUtTdWhscnNuRmVj
SkMybGtIVHc1WDF4dXpmMTVmVUdkNFpDUDFqMDFTU2xGWmdpQ1dUWmVRUGhxalV6
V3lxOTdHN25ZWm03Q2ZWY2ZQOTdJd09nOXhPMHoxb24ybGpNbE9LVVNhNjNqMS9K
SXVXSVRNb0VmN1R0VGNqOTV1Um5sdzF3UmFmSjFQREZBSFV6bVNDamthOGFCWVgv
YUMwL3htcW5IdC9KNDEvdXNrS1dUakFSOFg4dUQ1bUNHTjlnWFV6UDdzcituWGFt
K3lOQzR1aFg1bTJLRlIzbGE5aFBqN21tcXY2OEljeUQvQzhhUEQyWWNLSjFiM0FT
eHhjVFhVVzIzOTBCSXVCSit6enV4OHZFNnorUUJlN2x6TDFRci9GMzNqblBFbDI2
UFN3dmVMZDNKait0SERJZHE1UXFSdlZxbEV5VVZxOGVHdmMrYlJDc3BSSXp4Tisw
VzgzREZZNmFVd3dOM1FvRitOOWtIVzZ5MGVvL3ZBQjQ3aGZPdlR3ZXNsOGJCQ3pR
R09YWklvVm9VQTcxUXZJNE9TbGQxV3VmZGgxM2ZnWHF6cFdXTG5iRE1FcCs1eDhP
YmNxT2VKcXpQVVJZYWhhRC9nUGlMYndzSFRHNzg0SlFNaEtCUWJteVFZRmNrMTh6
UWtxc1hSUmJMaCtYeCtnYlkwOS9xOVB4SW93elJudUJOT1ZQUTI0OExHT05MaDRp
Q0FLclFPK3VpQmRiSUw0U2VDSU5mZFpLVm9TRHVkOStxbmpvZkhZalp1TGEwVmxV
eW41WlVxdVFZMXhyTC9MOFpjY3JQNEw1QkxTd3BEWTZvRHU5U3c1YVhHb2hMQ0Rv
NUdNRURXcThXaDNmemcveHJ1NmkyWm9la1dpTlh2d25QYXdFVzYva2FnQnBLNHdI
VzdGTnNSN3hHdjVhZGpvN3BVRnVqbWI4WWRnaExHdTlOamljVjhFWm96QXo0d2JD
YXpncGhDSnZ6azEzeGI1bDdUekRaZjNncjV2cFNRVldkdlM2dEhKUCtoN1FXS1N4
eHp2MFRyWDVFQkZ5L1F6ZnBVRGJCS1lOQklvcjh1cE5aZGRKbVBJUUphK0VBUQp4
NkEzK09tVkNGenRxVUdmU1dveUxnekp1M3VlejZIODlOTnBVdW5pZlFRCi0tLSBP
ZUZPRmNsZTVrWWZOcGY2VFB0N2NQenQzSElER0pMbWlndm5kRmhnL1RnCnLeSLMN
wenZvngdz1pMbwybpNUPv+9gD7Fhxj1qvNdBnWxPqzj/H1uHA2iqC3mPy79BZreL
886Wyrek1HnjGRX6vSEuNuNQnHMwFmbCvuO3UT/DekpT84jb5M7+G+qSeQG8S7H5
6tMLbMLe2LXJW3WEWnDLXRDV0rgTYo5FD6LBzdnXFxiT3RofKJd7BAiN7hYfhw1F
BU528OFSESE5zW6MgeakuWdKzfbrz6U8UtgnivFZwlJ60rI27XyR7CUPB3CP5wur
FcwOl13uMA6SP1Krnb+rfjvVRar+BqypXoFWMs8c7Vz4QqQoSushBRdbRXSI5BSy
h92/DYxzJTCZY8atXa5MI3a2dsEr83o/9tVjlKDoaocoGHYGizGhw0v7XmP3T7Bu
QNkxtj0JwFrK2YnGQngaNTb2VcjTZ58r7ufs7wLav9bRBWZsLbZRf/hD3LUJUki/
ax4uvnHUtx2o6/T6N8rTonm9nMH+4JfJqZTGQTgML0iOeUL5nKK3hu0bNOnpx4M=
-----END AGE ENCRYPTED FILE-----
